!!!COM: Scriabin, Alexander
!!!OTL@@FR: Poème en fa dièse majeur
!!!OTL@@EN: Poem in F# Major
!!!OPR@@FR: 2 Poèmes
!!!OPR@@EN: 2 Poems
!!!OPS: 32
!!!ONM: 1
!!!ODT: 1903
!!!AGN: Poem
**kern	**kern	**dynam
*staff2	*staff1	*staff1/2
*Ipiano	*Ipiano	*
*clefF4	*clefG2	*
*k[f#c#g#d#a#e#]	*k[f#c#g#d#a#e#]	*
*F#:	*F#:	*
*M9/8	*M9/8	*
*^	*	*
8DnL	8rc	4.b#X	.
8G#	8rc	.	.
8f#J	8B#X	.	.
=1	=1	=1	=1
[8BnL	4.BnX	2.dd#X	.
8B_ 8C#	.	.	.
8B_ [8e#J	.	.	.
4.B] 4.e#]	8A#L	.	.
.	8F##X	.	.
.	8G#J	.	.
8rc	4d#	8.f##L	.
4C# 4B 4e#	.	.	.
.	.	[16g#LL	.
.	8c#	16g#]	.
.	.	32r	.
.	.	32a#JJJ	.
=2	=2	=2	=2
.	.	16qqd#/LL	.
.	.	16qqe#/JJ	.
8A#L	[4.A#	[4.cc#	.
8E#	.	.	.
8GGnJ	.	.	.
8E#L	4A#]	4cc#]	.
8d#	.	.	.
8BJ	8B	8b	.
8BL	4.B	4dd#	.
8e#	.	.	.
8d#J	.	8b	.
=3	=3	=3	=3
*	*	*^	*
8d#L	4.d#	[2.e#	8a#L	.
8B	.	.	8f##X	.
8C#J	.	.	8g#J	.
8dL	4.dn	.	4b	.
8B	.	.	.	.
8C#J	.	.	[8a#	.
8c#L	4.c#	4e#]	4a#]	.
8B	.	.	.	.
8C#J	.	8rc	8c#	.
*v	*v	*	*	*
*	*v	*v	*
=4	=4	=4
.	8qA#/	.
8FF#L	[4.d#X	.
8C#	.	.
8A#J	.	.
4.c#	16d#LL]	.
.	16f#X	.
.	16g#	.
.	16a#	.
.	16cc#	.
.	16dd#JJ	.
8bL	[4ee#	.
8c#	.	.
8GnJ	16ee#LL]	.
.	16c#JJ	.
=5	=5	=5
.	8qA#/	.
*^	*	*
4.rEE	8FF#L	[4.d#	.
.	8C#	.	.
.	8A#J	.	.
4.rEE	4.c#	16d#LL]	.
.	.	16f#	.
.	.	16g#X	.
.	.	16a#	.
.	.	16cc#	.
.	.	16dd#JJ	.
8GnL	8rc	4.ee#	.
8c#	8rc	.	.
8bJ	8e#	.	.
=6	=6	=6	=6
[8enL	4.enX	2.gg#	.
8e_ 8F#	.	.	.
8e_ [8a#J	.	.	.
4.en] 4.a#]	8d#L	.	.
.	8B#X	.	.
.	8c#J	.	.
8rc	4g#	8.b#XL	.
4F# 4en 4a#	.	.	.
.	.	[16cc#L	.
.	8f#	16cc#]	.
.	.	16dd#JJ	.
=7	=7	=7	=7
.	.	16qqg#/LL	.
.	.	16qqa#/JJ	.
8d#L	[4.d#	[4.ff#	.
8A#	.	.	.
8CnJ	.	.	.
8A#L	4d#]	4ff#]	.
8g#	.	.	.
8eJ	8en	8een	.
8eL	4.e	4gg#	.
8a#	.	.	.
8g#J	.	8ee	.
=8	=8	=8	=8
*	*	*^	*
8g#L	4.g#	[2.a#	8dd#L	.
8en	.	.	8b#X	.
8F#J	.	.	8cc#XJ	.
8gL	4.gn	.	4een	.
8e	.	.	.	.
8F#J	.	.	[8dd#	.
8f#L	4.f#	4a#]	4dd#]	.
8e	.	.	.	.
8F#J	.	8rc	8f#	.
*v	*v	*	*	*
*	*v	*v	*
=9	=9	=9
.	8qd#/	.
8BBnL	[4.g#X	.
8F#	.	.
8d#J	.	.
4.f#	16g#LL]	.
.	16b	.
.	16cc#	.
.	16dd#	.
.	16ff#	.
.	16gg#JJ	.
*clefG2	*	*
8eenL	[4aa#	.
8f#	.	.
8cnJ	16aa#LL]	.
.	16f#JJ	.
*clefF4	*	*
=10	=10	=10
.	8qd#/	.
8BBL	[4.g#	.
8F#	.	.
8d#J	.	.
4.f#	16g#LL]	.
.	16b	.
.	16cc#X	.
.	16dd#	.
.	16ff#	.
.	16gg#JJ	.
*clefG2	*	*
8eenL	4.aa#	.
8f#	.	.
8cnJ	.	.
*clefF4	*	*
=11	=11	=11
.	8qdd#/	.
*^	*^	*
4.rEE	8BBL	4.rc	4.ddd#	.
.	8F#	.	.	.
.	[8d#J	.	.	.
4E#	4.d#]	4.rc	40%3bL 40%3aa#	.
.	.	.	40%3gg#	.
.	.	.	40%3dd#	.
.	.	.	40%3a#	.
8F#	.	.	.	.
.	.	.	40%3bJ	.
8BBL	4.rc	40%3rc	[4dd#	.
.	.	40%3d#L	.	.
8E#	.	.	.	.
.	.	40%3a#	.	.
.	.	40%3an	.	.
8d#J	.	.	16dd#LL]	.
.	.	40%3g#J	.	.
.	.	.	16dd#JJ	.
*v	*v	*	*	*
=12	=12	=12	=12
8AA#L	4.rc	4.ccc#	.
8F#	.	.	.
8a#J	.	.	.
4B#X	4.rc	40%3ee#L	.
.	.	40%3dd#	.
.	.	40%3a#X	.
.	.	40%3e#	.
8c#	.	.	.
.	.	40%3f#J	.
8GG#L	40%3rc	[4a#	.
.	40%3B#XL	.	.
8F#	.	.	.
.	40%3e#	.	.
.	40%3en	.	.
8B#J	.	16a#LL]	.
.	40%3d#J	.	.
.	.	16a#JJ	.
*	*v	*v	*
=13	=13	=13
.	8qB#X/	.
8CC#L	2.aa#	.
8GG#	.	.
8F#J	.	.
8B#XL	.	.
8d#	.	.
8b#XJ	.	.
4r	40%3b#XL	.
.	40%3a#	.
.	40%3e#X	.
.	40%3f#	.
8r	.	.
.	40%3a#J	.
=14	=14	=14
8%9r	2.ee#	.
.	4.dd#	.
=15	=15	=15
*M3/4	*M3/4	*
*	*^	*
12BL	20dd#LL	10.dd#	.
.	20g#	.	.
12C#	.	.	.
.	20e#	.	.
.	20dd#J	20dd#KL	.
24r	.	.	.
.	40r	40r	.
24GG#Jk	.	.	.
.	40gg#Jkk	40gg#Jkk	.
12CC#L	20dd#LL	10.dd#	.
.	20g#	.	.
12GG#	.	.	.
.	20e#	.	.
.	20dd#	20dd#LL	.
24r	.	.	.
.	20bJJ	20bJJ	.
24C#Jk	.	.	.
4B	20dd#LL	10.dd#	.
.	20g#	.	.
.	20e#	.	.
.	20dd#J	20dd#KL	.
.	40r	40r	.
.	40dd#Jkk	40dd#Jkk	.
=16	=16	=16	=16
12A#L	20dd#LL	10.dd#	.
.	20f##X	.	.
12C#	.	.	.
.	20en	.	.
.	20dd#J	20dd#KL	.
24r	.	.	.
.	40r	40r	.
24FF##XJk	.	.	.
.	40ff##Jkk	40ff##XJkk	.
12CC#L	20dd#LL	10.dd#	.
.	20f##	.	.
12FF##	.	.	.
.	20e	.	.
.	20dd#	20dd#LL	.
24r	.	.	.
.	20a#JJ	20a#JJ	.
24C#Jk	.	.	.
4A#	20dd#LL	10.dd#	.
.	20f##	.	.
.	20e	.	.
.	20dd#	20dd#LL	.
.	20a#JJ	20a#JJ	.
=17	=17	=17	=17
12AnL	20cc#LL	10.cc#	.
.	20f#X	.	.
12C#	.	.	.
.	20d#	.	.
.	20cc#J	20cc#KL	.
24r	.	.	.
.	40r	40r	.
24FF#XJk	.	.	.
.	40ff#Jkk	40ff#Jkk	.
12CC#L	20cc#LL	10.cc#	.
.	20f#	.	.
12FF#	.	.	.
.	20d#	.	.
.	20cc#	20cc#LL	.
24r	.	.	.
.	20aJJ	20anJJ	.
24C#Jk	.	.	.
4A	20cc#LL	10.cc#	.
.	20f#	.	.
.	20d#	.	.
.	20cc#J	20cc#KL	.
.	40r	40r	.
.	40cc#Jkk	40cc#Jkk	.
=18	=18	=18	=18
12G#L	20cc#LL	10.cc#	.
.	20e#	.	.
12C#	.	.	.
.	20dn	.	.
.	20cc#	20cc#LL	.
24r	.	.	.
.	20ee#JJ	20ee#JJ	.
24EE#Jk	.	.	.
12CC#L	20cc#LL	10.cc#	.
.	20e#	.	.
12EE#	.	.	.
.	20d	.	.
.	20cc#	20cc#LL	.
24r	.	.	.
.	20g#JJ	20g#JJ	.
24C#Jk	.	.	.
4G#	20cc#LL	10.cc#	.
.	20e#	.	.
.	20d	.	.
.	20cc#	20cc#LL	.
.	20g#JJ	20g#JJ	.
=19	=19	=19	=19
12G#L	20bLL	10.b	.
.	20en	.	.
12C#	.	.	.
.	20c#	.	.
.	20bJ	20bKL	.
24r	.	.	.
.	40r	40r	.
24FF#Jk	.	.	.
.	40eeJkk	40eenJkk	.
12CC#L	20bLL	10.b	.
.	20e	.	.
12FF#	.	.	.
.	20c#	.	.
.	20b	20bLL	.
24r	.	.	.
.	20g#JJ	20g#JJ	.
24C#Jk	.	.	.
[10.G#	20bLL	10.b	.
.	20e	.	.
.	20c#	.	.
20G#LL]	20b	20bLL	.
20F#JJ	20aJJ	20anJJ	.
=20	=20	=20	=20
*^	*	*	*
6En	4rc	20g#LL	10.g#	.
.	.	20c#	.	.
.	.	20An	.	.
.	.	20g#J	20g#KL	.
12FF#	.	.	.	.
.	.	40r	40r	.
.	.	40cc#Jkk	40cc#Jkk	.
6CC#	4rc	20g#LL	10.g#	.
.	.	20c#	.	.
.	.	20A	.	.
.	.	20g#	20g#LL	.
[12FF#	.	.	.	.
.	.	20eJJ	20enJJ	.
4FF#]	[10.E	20g#LL	[10.g#	.
.	.	20B#X	.	.
.	.	[20A	.	.
.	20ELL]	20A] 20B#	20g#LL]	.
.	20DnJJ	20f#JJ	20f#JJ	.
=21	=21	=21	=21	=21
4rEE	4CC# 4GG#X 4C#	20e#XLL	10.e#	.
.	.	20c#	.	.
.	.	20G#	.	.
.	.	20c#	20c#LL	.
.	.	20e#JJ	20e#JJ	.
4rEE	4CC# 4GG# 4E#X	20g#LL	10.g#	.
.	.	20c#	.	.
.	.	20G#	.	.
.	.	20c#	20c#LL	.
.	.	20g#JJ	20g#JJ	.
4FF#	[10.En	20g#LL	[10.g#	.
.	.	20B#X	.	.
.	.	[20An	.	.
.	20ELL]	20A] 20B#	20g#LL]	.
.	20DnJJ	20f#JJ	20f#JJ	.
=22	=22	=22	=22	=22
4rEE	4CC# 4GG# 4C#	20e#XLL	10.e#	.
.	.	20c#	.	.
.	.	20G#	.	.
.	.	20c#	20c#LL	.
.	.	20e#JJ	20e#JJ	.
4rEE	4CC# 4GG# 4E#X	20g#LL	10.g#	.
.	.	20c#	.	.
.	.	20G#	.	.
.	.	20c#	20c#LL	.
.	.	20g#JJ	20g#JJ	.
4FF#	[10.En	20g#LL	[10.g#	.
.	.	20B#X	.	.
.	.	[20An	.	.
.	20ELL]	20A] 20B#	20g#LL]	.
.	20DnJJ	20f#JJ	20f#JJ	.
=23	=23	=23	=23	=23
2CC# 2GG#	4C#	20e#XLL	10.e#	.
.	.	20c#	.	.
.	.	20G#	.	.
.	.	20c#	20c#LL	.
.	.	20e#JJ	20e#JJ	.
.	4E#X	20g#LL	10.g#	.
.	.	20e#	.	.
.	.	20c#	.	.
.	.	20e#	20e#LL	.
.	.	20g#JJ	20g#JJ	.
4rEE	[4C# [4G#	[4e#	[4dd#	.
*v	*v	*	*	*
=24	=24	=24	=24
2C#] 2G#]	2e#]	4.dd#]	.
.	.	8cc#	.
12DnL	4rc	4b#X	.
12G#	.	.	.
12f#J	.	.	.
*	*v	*v	*
=25	=25	=25
*M9/8	*M9/8	*
*^	*^	*
4.rEE	8dd#XL	2.dd#X	8raa	.
.	8e#	.	8raa	.
.	8BnJ	.	8bbn	.
8rEE	8C#L	.	8aa#L	.
[4B	8B	.	8ff##X	.
.	[8e#J	.	8gg#J	.
.	.	.	8qee#/	.
8BL]	4.e#]	8.f##XL	4ddd#	.
8B	.	.	.	.
.	.	[16g#L	.	.
8c#J	.	16g#]	8ccc#	.
.	.	16a#JJ	.	.
=26	=26	=26	=26	=26
4.rEE	8d#L 8e#	[4.cc#	[4.aa#	.
.	8GGn	.	.	.
.	8E#J	.	.	.
4.rEE	8d#L	4cc#]	4aa#]	.
.	8e#	.	.	.
.	8bJ	8b	[8bb	.
4B	8BL	4dd#	4bb]	.
.	8e#	.	.	.
8d#	8d#J	8b	8dd#	.
*v	*v	*	*	*
=27	=27	=27	=27
8BL	8a#L	4dd#	.
8e#	8f##X	.	.
[8C#J	8g#J	8ddn	.
8C#L]	4b	4dd	.
8B	.	.	.
[8e#J	[8a#	8cc#	.
8e#L]	4a#]	8cc#	.
8B	.	8raa	.
8C#J	8c#	8raa	.
*	*v	*v	*
=28	=28	=28
.	8qA#/	.
8FF#L	[4.d#	.
8C#	.	.
8A#J	.	.
4.c#	16d#LL]	.
.	16f#	.
.	16g#	.
.	16a#	.
.	16cc#	.
.	16dd#JJ	.
8bL	[4ee#	.
8c#	.	.
8GnJ	16ee#LL]	.
.	16c#JJ	.
=29	=29	=29
.	8qA#/	.
8FF#L	[4.d#	.
8C#	.	.
8A#J	.	.
4.c#	16d#LL]	.
.	16f#	.
.	16g#	.
.	16a#	.
.	16cc#	.
.	16dd#JJ	.
8GnL	4.ee#	.
8c#	.	.
8bJ	.	.
=30	=30	=30
*^	*^	*
4.rEE	8gg#L	2.gg#X	8raa	.
.	8a#	.	8raa	.
.	8enJ	.	8eeen	.
8rEE	8F#L	.	8ddd#L	.
[4e	8e	.	8bb#X	.
.	[8a#J	.	8ccc#J	.
.	.	.	8qaa#/	.
8eL]	4.a#]	8.b#XL	4ggg#	.
8e	.	.	.	.
.	.	[16cc#L	.	.
8f#J	.	16cc#]	8fff#	.
.	.	16dd#JJ	.	.
=31	=31	=31	=31	=31
4.rEE	8g#L 8a#	[4.ff#	[4.ddd#	.
.	8Cn	.	.	.
.	8A#J	.	.	.
4.rEE	8g#L	4ff#]	4ddd#]	.
.	8a#	.	.	.
.	8eenJ	8een	[8eeen	.
4e	8enL	4gg#	4eee]	.
.	8a#	.	.	.
8g#	8g#J	8ee	8gg#	.
*v	*v	*	*	*
=32	=32	=32	=32
8enL	8dd#L	4gg#	.
8a#	8b#X	.	.
[8F#J	8cc#XJ	8ggn	.
8F#L]	4een	4gg	.
8e	.	.	.
[8a#J	[8dd#	8ff#	.
8a#L]	4dd#]	8ff#	.
8e	.	8raa	.
8F#J	8f#	8raa	.
*	*v	*v	*
=33	=33	=33
.	8qd#/	.
8BBnL	[4.g#X	.
8F#	.	.
8d#J	.	.
4.f#	16g#LL]	.
.	16b	.
.	16cc#	.
.	16dd#	.
.	16ff#	.
.	16gg#JJ	.
*clefG2	*	*
8eenL	[4aa#	.
8f#	.	.
8cnJ	16aa#LL]	.
.	16f#JJ	.
*clefF4	*	*
=34	=34	=34
.	8qd#/	.
8BBL	[4.g#	.
8F#	.	.
8d#J	.	.
4.f#	16g#LL]	.
.	16b	.
.	16cc#X	.
.	16dd#	.
.	16ff#	.
.	16gg#JJ	.
*clefG2	*	*
8eenL	[4aa#	.
8f#	.	.
8cnJ	16aa#LL]	.
.	16f#JJ	.
*clefF4	*	*
=35	=35	=35
.	8qdd#/	.
*^	*^	*
4.rEE	8BBL	4.rc	4.ddd#	.
.	8F#	.	.	.
.	[8d#J	.	.	.
4E#	4.d#]	4.rc	40%3bL 40%3aa#	.
.	.	.	40%3gg#	.
.	.	.	40%3dd#	.
.	.	.	40%3a#	.
8F#	.	.	.	.
.	.	.	40%3bJ	.
8BBL	4.rc	40%3rc	[4dd#	.
.	.	40%3d#L	.	.
8E#	.	.	.	.
.	.	40%3a#	.	.
.	.	40%3an	.	.
8d#J	.	.	16dd#LL]	.
.	.	40%3g#J	.	.
.	.	.	16dd#JJ	.
*v	*v	*	*	*
=36	=36	=36	=36
8AA#L	4.rc	4.ccc#	.
8F#	.	.	.
8a#J	.	.	.
4B#X	4.rc	40%3ee#L	.
.	.	40%3dd#	.
.	.	40%3a#X	.
.	.	40%3e#	.
8c#	.	.	.
.	.	40%3f#J	.
8GG#L	40%3rc	[4a#	.
.	40%3B#XL	.	.
8F#	.	.	.
.	40%3e#	.	.
.	40%3en	.	.
8B#J	.	16a#LL]	.
.	40%3d#J	.	.
.	.	16a#JJ	.
=37	=37	=37	=37
8CC#L	4.rc	2.aa#	.
8GG#	.	.	.
8F#J	.	.	.
8BnL	4.rc	.	.
8d#	.	.	.
8bJ	.	.	.
8qCC#/ 8qC#	.	.	.
4.E# 4.B 4.d#	40%3rc	40%3ee#L	.
.	40%3d#L	40%3dd#	.
.	40%3a#	40%3a#	.
.	40%3an	40%3b	.
.	40%3g#J	40%3dd#J	.
*	*v	*v	*
=38	=38	=38
.	16qqe#/LL	.
.	16qqb/	.
.	16qqdd#/JJ	.
8FFF#L 8FF#	[2.aa#X	.
8C#	.	.
8BJ	.	.
*clefG2	*	*
8d#L	.	.
8e#	.	.
8bJ	.	.
4.dd#	4aa#]	.
.	8gg#	.
*clefF4	*	*
=39	=39	=39
*M3/4	*M3/4	*
*	*^	*
12enL	20gg#LL	10.gg#	.
.	20cc#	.	.
12F#	.	.	.
.	20a#	.	.
.	20gg#J	20gg#KL	.
24r	.	.	.
.	40r	40r	.
24C#Jk	.	.	.
.	40ccc#Jkk	40ccc#Jkk	.
12FF#L	20gg#LL	10.gg#	.
.	20cc#	.	.
12C#	.	.	.
.	20a#	.	.
.	20gg#	20gg#LL	.
24r	.	.	.
.	20eeJJ	20eenJJ	.
24F#Jk	.	.	.
4e	20gg#LL	10.gg#	.
.	20cc#	.	.
.	20a#	.	.
.	20gg#J	20gg#KL	.
.	40r	40r	.
.	40gg#Jkk	40gg#Jkk	.
=40	=40	=40	=40
12d#L	20gg#LL	10.gg#	.
.	20b#X	.	.
12F#	.	.	.
.	20an	.	.
.	20gg#J	20gg#KL	.
24r	.	.	.
.	40r	40r	.
24BB#XJk	.	.	.
.	40bb#Jkk	40bb#XJkk	.
12FF#L	20gg#LL	10.gg#	.
.	20b#	.	.
12BB#	.	.	.
.	20a	.	.
.	20gg#	20gg#LL	.
24r	.	.	.
.	20dd#JJ	20dd#JJ	.
24F#Jk	.	.	.
4d#	20gg#LL	10.gg#	.
.	20b#	.	.
.	20a	.	.
.	20gg#	20gg#LL	.
.	20dd#JJ	20dd#JJ	.
=41	=41	=41	=41
12dnL	20ff#LL	10.ff#	.
.	20bn	.	.
12F#	.	.	.
.	20g#	.	.
.	20ff#J	20ff#KL	.
24r	.	.	.
.	40r	40r	.
24BBnJk	.	.	.
.	40bbJkk	40bbJkk	.
12FF#L	20ff#LL	10.ff#	.
.	20b	.	.
12BB	.	.	.
.	20g#	.	.
.	20ff#	20ff#LL	.
24r	.	.	.
.	20ddJJ	20ddnJJ	.
24F#Jk	.	.	.
4d	20ff#LL	10.ff#	.
.	20b	.	.
.	20g#	.	.
.	20ff#J	20ff#KL	.
.	40r	40r	.
.	40ff#Jkk	40ff#Jkk	.
=42	=42	=42	=42
12c#L	20ff#LL	10.ff#	.
.	20a#	.	.
12F#	.	.	.
.	20gn	.	.
.	20ff#	20ff#LL	.
24r	.	.	.
.	20aa#JJ	20aa#JJ	.
24AA#Jk	.	.	.
12FF#L	20ff#LL	10.ff#	.
.	20a#	.	.
12AA#	.	.	.
.	20g	.	.
.	20ff#	20ff#LL	.
24r	.	.	.
.	20cc#JJ	20cc#JJ	.
24F#Jk	.	.	.
4c#	20ff#LL	10.ff#	.
.	20a#	.	.
.	20g	.	.
.	20ff#	20ff#LL	.
.	20cc#JJ	20cc#JJ	.
=43	=43	=43	=43
12c#L	20eeLL	10.een	.
.	20an	.	.
12F#	.	.	.
.	20f#	.	.
.	20eeJ	20eeKL	.
24r	.	.	.
.	40r	40r	.
24BBJk	.	.	.
.	40aaJkk	40aanJkk	.
12FF#L	20eeLL	10.ee	.
.	20a	.	.
12BB	.	.	.
.	20f#	.	.
.	20ee	20eeLL	.
24r	.	.	.
.	20cc#JJ	20cc#JJ	.
24F#Jk	.	.	.
[10.c#	20eeLL	10.ee	.
.	20a	.	.
.	20f#	.	.
20c#LL]	20ee	20eeLL	.
20BJJ	20ddJJ	20ddnJJ	.
=44	=44	=44	=44
*^	*	*	*
6An	4rc	20cc#LL	10.cc#	.
.	.	20f#	.	.
.	.	20dn	.	.
.	.	20cc#J	20cc#KL	.
12BB	.	.	.	.
.	.	40r	40r	.
.	.	40ff#Jkk	40ff#Jkk	.
6FF#	4rc	20cc#LL	10.cc#	.
.	.	20f#	.	.
.	.	20d	.	.
.	.	20cc#	20cc#LL	.
[12BB	.	.	.	.
.	.	20aJJ	20anJJ	.
4BB]	[10.A	20cc#LL	[10.cc#	.
.	.	20e#X	.	.
.	.	[20d	.	.
.	20ALL]	20d] 20e#	20cc#LL]	.
.	20GnJJ	20bJJ	20bJJ	.
=45	=45	=45	=45	=45
4rEE	4FF# 4C# 4F#	20a#XLL	10.a#	.
.	.	20f#	.	.
.	.	20c#	.	.
.	.	20f#	20f#LL	.
.	.	20a#JJ	20a#JJ	.
4rEE	4FF# 4C# 4A#X	20cc#LL	10.cc#	.
.	.	20f#	.	.
.	.	20c#	.	.
.	.	20f#	20f#LL	.
.	.	20cc#JJ	20cc#JJ	.
4BB	[10.An	20cc#LL	[10.cc#	.
.	.	20e#	.	.
.	.	[20dn	.	.
.	20ALL]	20d] 20e#	20cc#LL]	.
.	20GnJJ	20bJJ	20bJJ	.
=46	=46	=46	=46	=46
4rEE	4FF# 4C# 4F#	20a#XLL	10.a#	.
.	.	20f#	.	.
.	.	20c#	.	.
.	.	20f#	20f#LL	.
.	.	20a#JJ	20a#JJ	.
4rEE	4FF# 4C# 4A#X	20cc#LL	10.cc#	.
.	.	20f#	.	.
.	.	20c#	.	.
.	.	20f#	20f#LL	.
.	.	20cc#JJ	20cc#JJ	.
4BB	[10.An	20cc#LL	[10.cc#	.
.	.	20e#	.	.
.	.	[20dn	.	.
.	20ALL]	20d] 20e#	20cc#LL]	.
.	20GnJJ	20bJJ	20bJJ	.
=47	=47	=47	=47	=47
2.FF# 2.C#	4F#	20a#XLL	10.a#	.
.	.	20f#	.	.
.	.	20c#	.	.
.	.	20f#	20f#LL	.
.	.	20a#JJ	20a#JJ	.
.	4A#X	20cc#LL	10.cc#	.
.	.	20a#	.	.
.	.	20f#	.	.
.	.	20a#	20a#LL	.
.	.	20cc#JJ	20cc#JJ	.
.	4c#	20ff#LL	10.ff#	.
.	.	20cc#	.	.
.	.	20a#	.	.
.	.	20cc#	20cc#LL	.
.	.	20ff#JJ	20ff#JJ	.
*v	*v	*	*	*
*	*v	*v	*
=48	=48	=48
2.FF# 2.C# 2.F# 2.c#	2.a# 2.cc# 2.ff# 2.aa#	.
==	==	==
*-	*-	*-
!!!system-decoration: {(*)}
!!!ENC: Bryan Jacob Bell
!!!END: November 2021 to April 2022
!!!PED: Günter Philipp
!!!PTL: Ausgewählte Klavierwerke (Edition Peters)
